X:1
T:Kindertotenlieder
T:In diesem Wetter
T:Kindertotenlieder
T:Gustav Mahler
T:Friedrich Rückert (English words by John Bernhoff)
T:5. In diesem Wetter!
T:OpenScore (CC0)
T:OpenScore (CC0)
T:OpenScore (CC0)
T:OpenScore (CC0)
T:OpenScore (CC0)
T:OpenScore (CC0)
T:OpenScore (CC0)
T:OpenScore (CC0)
T:OpenScore (CC0)
T:OpenScore (CC0)
T:OpenScore (CC0)
T:OpenScore (CC0)
T:OpenScore (CC0)
T:OpenScore (CC0)
T:OpenScore (CC0)
T:OpenScore (CC0)
C:Gustav Mahler
Z:Friedrich Rückert
Z:OpenScore (CC0)
%%score ( 1 2 ) { ( 3 6 7 ) | ( 4 5 8 ) }
L:1/8
Q:1/4=80
M:4/4
K:F
V:1 treble nm="Gesang\nVoice"
V:2 treble 
V:3 treble nm="Piano"
V:6 treble 
V:7 treble 
V:4 bass 
V:5 bass 
V:8 bass 
V:1
"^Mit ruhelos, schmerzvollen Ausdruck""^Inquieto, con espressione dolorosa" z8 | z8 | z8 | z8 | %4
w: ||||
w: ||||
 z8 | z8 | z8 | z8 | z8 | z8 | z8 | z8 | z8 | z8 | z8 | z8 | z4 z!p!!<(! D D D!<)! | %17
w: ||||||||||||In die- sem|
w: ||||||||||||In such a|
!>(! D2 D2!>)! z!<(! D D D!<)! |!>(! D4!>)! z2!p! D2 | D4!<(! E3 E!<)! |!mp! G2 G2 z2 D2 | %21
w: Wet- ter, in die- sem|Braus, nie|hätt' ich ge-|sen- det die|
w: tem- pest, on such a|day, I|ne'er had per-|mit- ted the|
!<(! D4 E3 E!<)! |!mf! !>!d4 z2 ^c2 |!>(!!>(! =c4 =B3!>)!!>)!!p! F |!<(! _B2 B2!<)!!mp! z2 B2 | %25
w: Kin- der hin-|aus! Man|hat sie ge-|tra- gen, ge-|
w: child- ren to|play! Now|hence they have|borne them, have|
!<(! (B2 A2)!<)!!f!!>(! G3!>)!!mf! D |!f!!>(! F4!>)! z4 | z4 z2 (=E_E) | %28
w: tra- * gen, hin-|aus!|Ich _|
w: borne * them a-|way!|They _|
!p!"^schmerzlich""^doloroso""^cresc." D3 D =E2 D E | (=G6!mp! F2) | D4 z4 | %31
w: durf- te nichts da- zu|sa- *|gen!|
w: would not let me fore-|warn _|them!|
 z4!mp! z!<(! D D D!<)! |!>(! E2 E2!>)! z!<(! D D D!<)! |!mf! !>!E4 z2!mp! (DE) |!p! d4 ^c3 c | %35
w: In die- sem|Wet- ter, in die- sem|Saus, nie _|hätt' ich ge-|
w: In such a|tem- pest, on such a|day, I _|ne'er had per-|
 =c2- c2 z2!<(! (EF)!<)! | (!>!f2 !>!_e2) d2!>(! c2!>)! | c4 z4 | z8 | z4 z2!mf! _E2 | %40
w: las- sen die _|Kin- * der hin-|aus,||Ich|
w: mit- ted the _|child- * ren to|stray,||I|
!p! D2!<(! _E F _B2 B2!<)! | !>!_B2 !>!A2 z2!pp! G2 | F2 (_ED) G2 F F | (F=E) E2 z4 | z8 | z8 | %46
w: fürch- te- te, sie er-|kran- ken: das|sind nun * eit- le Ge-|dan- * ken.|||
w: feared me, lest ill be-|fall them, now|all in * vane do I|call * them.|||
 z8 | z8 | z8 | z8 | z4 z!mp!!<(! D D E!<)! |!ff! G2 G2!mp! z!<(! D D E!<)! |!ff! G4 z2!mf! d2 | %53
w: ||||In die- sem|Wet- ter, in die- sem-|Graus, nie|
w: ||||In such a|tem- pest, on such a|day, I|
!p!"^klagend""^lagrimoso" d4 _d3 d | (_dc-) c2 z2!<(! (^FG)!<)! | (!>!f2 _e2) d2 c2 | c4 z4 | z8 | %58
w: hätt' ich ge-|las- * sen die _|Kin- * der hin-|aus,||
w: ne'er had per-|mit- * ted the _|child- * ren to|play.||
 z4 z2!p! A2 | A2!<(! F F E2 B2!<)! |!f! d4 F2 z2 | z8 | z4 z2!p! (^FE) | !>!D2 D2 E2 D E | %64
w: ich|sorg- te, sie stür- ben|mor- gen;||das _|ist nun nicht zu be-|
w: I'd|fear me they'd die on|mor- row;||now they've|gone, and left me to|
 !>!=F4 E2 z2 | z8 | z8 | z8 | z8 | z8 | z8 | z8 | z8 | z4 z!ff! D D E | G2 G2 z D D E | %75
w: sor- gen.|||||||||In die- sem|Wet- ter, in die- sem|
w: sor- row.|||||||||In such a|tem- pest, on such a|
!>(! !>!G8!>)! | z8 | z8 | z4 z2!ff! G2 | G4 ^F3 B, | =F2 F2 z2 (^DE) | =d4 ^c3 G | =c4 z4 | z8 | %84
w: Graus,|||nie|hätt' ich ge-|sen- det die *|Kin- der hin-|aus,||
w: day,|||I|ne'er had per-|mit- ted the *|child- ren to|play.||
 z4 z2 z!ff! _B | _B2 B B A3 A | (AG) G4 z2 | z4 z2"^(immer""^(sempre" G2 | %88
w: man|hat sie hin- aus ge-|tra- * gen,|ich|
w: Now|hence from their home they've|borne * them,|they|
"^sehr stark)""^molto forte)" G3 G A2"^nicht zurückhalten""^non ritenuto" G A | (!>!=c6 =B2) | %90
w: durf- te nichts da- zu|sa- *|
w: would not let me fore-|warn _|
 _B2 z2 z4 | z8 | z8 | %93
w: gen!|||
w: them!|||
"^Allmählich langsamer"[Q:1/4=80]"^Poco a poco più lento" z8[Q:1/4=79]"^.6"[Q:1/4=79]"^.2"[Q:1/4=78]"^.8"[Q:1/4=78]"^.3"[Q:1/4=77]"^.9"[Q:1/4=77]"^.5"[Q:1/4=77]"^.1" | %94
w: |
w: |
[Q:1/4=76]"^.7" z8[Q:1/4=75]"^.8"[Q:1/4=75] | %95
w: |
w: |
[Q:1/4=73]"^.3" z8[Q:1/4=72]"^.9"[Q:1/4=72]"^.5"[Q:1/4=72]"^.1"[Q:1/4=71]"^.7"[Q:1/4=71]"^.3"[Q:1/4=70]"^.8"[Q:1/4=70]"^.4" | %96
w: |
w: |
[Q:1/4=70] z8[Q:1/4=69]"^.2"[Q:1/4=68]"^.3" | %97
w: |
w: |
[Q:1/4=66]"^.7" z8[Q:1/4=66]"^.2"[Q:1/4=65]"^.8"[Q:1/4=65]"^.4"[Q:1/4=65][Q:1/4=64]"^.6"[Q:1/4=64]"^.2"[Q:1/4=63]"^.8" || %98
w: |
w: |
[K:D][Q:1/4=63]"^.3" z8[Q:1/4=62]"^.9"[Q:1/4=62]"^.5"[Q:1/4=62]"^.1"[Q:1/4=61]"^.7"[Q:1/4=61]"^.2"[Q:1/4=60]"^.8"[Q:1/4=60]"^.4" | %99
w: |
w: |
"^Langsam, wie ein Wiegenlied"[Q:1/4=60]!pp! z4"^Lento, à la berceuse" z2!pp! A2 | A6 d2 | %101
w: In|die- sem|
w: In|such a|
 A4 F2 F2 | G6 _B2 | A4 z2 ((FA)) | (G2 F2) (E2 D2) | E4 z2 (E2 | A6 B2 | c6) (d2 | e4 c2 d2 | %109
w: Wet- ter, in|die- sem|Saus, in _|die- * sem _|Braus, sie|ruh'n, sie|ruh'n als|wie in der|
w: tem- pest, on|such a|day, in _|spite _ of _|storms, they|sleep and|rest as|safe as in|
 c2 A2) F2 d2 | (c2 A2 F2) B2 | E8- | E4 z4 | z4 z2 E2 | ^G3 G A2 (GA) | c4 B2 A2 | B3 B c2 (Bc) | %117
w: Mut- * ter, der|Mut- * * ter|Haus,|_|von|kei- nem Sturm er- *|schrek- ket, von|Got- tes Hand be- *|
w: mo- * ther's, in|mo- * * ther's|arms,|_|no|ills can now be- *|tide them, for|God's own hand will *|
 e4 d2 (cB) | (A4 F2) d2 | (A4 F2) F2 | (AG) (GF) G2 _B2 | A6 (Ad) | (AG) F2 (FE) D2 | D8 | z8 | %125
w: dek- ket, sie *|ruh'n, _ sie|ruh'n _ wie|in _ der _ Mut- ter|Haus, wie *|in * der Mut- * ter|Haus.||
w: guide them all *|safe _ they|rest, _ as|on _ their _ mo- ther's|breast, as *|on * their mo- * ther's|breast!||
 z8 | z8 | z8 | z8 | z8 | z8 | z8 | z8 | z8 | z8 | z8 | z8 | z8 | !fermata!z8 |] %139
w: ||||||||||||||
w: ||||||||||||||
V:2
 x8 | x8 | x8 | x8 | x8 | x8 | x8 | x8 | x8 | x8 | x8 | x8 | x8 | x8 | x8 | x8 | x8 | x8 | x8 | %19
w: |||||||||||||||||||
w: |||||||||||||||||||
 x8 | x8 | x8 | x8 | x8 | x8 | x8 | x8 | x8 | x8 | x8 | x8 | x8 | x8 | x8 | x8 | x8 | x8 | x8 | %38
w: |||||||||||||||||||
w: |||||||||||||||||||
 x8 | x8 | x8 | x8 | x8 | x8 | x8 | x8 | x8 | x8 | x8 | x8 | x8 | x8 | x8 | x8 | x8 | x8 | x8 | %57
w: |||||||||||||||||||
w: |||||||||||||||||||
 x8 | x8 | x4 x2 B B | x8 | x8 | x4 x2 ^F E | x8 | x8 | x8 | x8 | x8 | x8 | x8 | x8 | x8 | x8 | %73
w: ||||||||||||||||
w: ||* the||||||||||||||
 x8 | x8 | x8 | x8 | x8 | x8 | x8 | x8 | x8 | x8 | x8 | x8 | x8 | x8 | x8 | x8 | x8 | x8 | x8 | %92
w: |||||||||||||||||||
w: |||||||||||||||||||
 x8 | x8 | x8 | x8 | x8 | x8 ||[K:D] x8 | x8 | x8 | x8 | x8 | x8 | x8 | x8 | x8 | x8 | x8 | x8 | %110
w: ||||||||||||||||||
w: ||||||||||||||||||
 x8 | x8 | x8 | x8 | x8 | x8 | x8 | x8 | x8 | x8 | x8 | x8 | x8 | x8 | x8 | x8 | x8 | x8 | x8 | %129
w: |||||||||||||||||||
w: |||||||||||||||||||
 x8 | x8 | x8 | x8 | x8 | x8 | x8 | x8 | x8 | x8 |] %139
w: ||||||||||
w: ||||||||||
V:3
 x8!pp! | %1
[I:staff +1] [D,F,D]/D,/[I:staff -1] z[I:staff +1] T[C,E,]/[I:staff -1](A/d/D/ A/[I:staff +1]A,/)[I:staff -1] z z/ (D/A/A,/) | %2
 (!>!D6 !>![E,E]!>![F,F]) | (!>!D6 !>![E,E]!>![F,F]) | !>!d4 !>!^c4 | !>!=c6 (EF) | %6
 (!>!e2 !>!d2 !>!^c2 !>!=c2) | c6!<(! (^FG) | %8
{/G} g2!<)!!p!!<(! (^FG){/G} =f2!<)!!mf!!<(! (^FG)!<)! | %9
!f! (!arpeggio!=f!>(!_e) e3 (d_d!mp!c)!>)! |!f! (_e!>(!=d_dc =B_AG!>)!!p!^F) | %11
!<(! =F4- F!<)!!mf!(!>!_A!>!G!>!_G) |!p!!<(! F4!<)! F(!>!_A!f!!>!G!>!_G) | %13
!<(! (F=DF_D !arpeggio!FCF!<)!=B,) |[I:staff +1]{/F,}[I:staff -1] (FA,) A,4!pp! z/ (A/d/D/ | %15
 A/A,/) z z2 z2 z/ (D/A/A,/) | z8 | z8 | x6!pp! (^CD) | %19
 !arpeggio!!>![DEd]2!<(! (((^C!<)!D)))!p! !arpeggio!!>![DE^c]2!pp!!<(! (CD)!<)! | %20
!p! (!arpeggio!!>!^c=c) c4!pp!!<(! (^CD)!<)! | %21
!p! !arpeggio!!>![DE=c]2!pp!!<(! (((^CD)))!<)!!p! !arpeggio!!>![DE=B]2!<(! (CD)!<)! | %22
!mf! !arpeggio![DE_B]8 | x4 x2 (^CD) |!p! (!>!F4!mp! !>!E2 !>!_E2) |!mf! (D2 ^C2 =C4) | %26
 F6 (=E!p!_E) | F6 =E_E | (!///-!D4 D,4) |"_r.H." (!///-!D4!mp! D,4) |!p!"_cresc." !>!D6 !>!E!>!F | %31
 !>!D6 !>!E!>!F |!<(! ([_B,D]2 [A,^C]2 [_A,=C]2!<)!!f![I:staff +1] =B,2) | %33
!p!!<(![I:staff -1] ([_B,D]2 [A,^C]2 [_A,=C]2!<)!!mp![I:staff +1] [G,=B,]2) |[I:staff -1] (d4 ^c4 | %35
 =c6) (EF) | (f2 _e2 d2 c2) | c4 z4 |{/_E} _e2!<(! (D_E)!<)!{/E} =d2!<(! (DE)!<)! | %39
 (!>!=dc) c3 (!>!_G!>!F!>!_E) |!p! D4 F4 |!>(! (=E4!>)! _E2 ^C2) |!pp! (D4 _E2 D2) | %43
!<(! C6!<)! [G,B,D]2 | z2!pp! z/ (e/a/A/ e/E/) z z2 | z2 z/ (e/a/A/ e/E/) z z2 |!p! !>!A4 ^G3 D- | %47
 F6!<(! (!>!^C!>!D)!<)! |{/D} d2!<(! (^CD)!<)!{/D} ^c2!<(! (CD)!<)! | %49
!>(! (!>!^c=c) c3 (=B_B!>)!!mp!A) |!>(! (=c=B_BA) (^GFE!>)!!p!D) | %51
!>(! !arpeggio!T=G2 T^F2 T=F2!>)!!p! TE2 |!>(! !arpeggio!TB2 TA2 T_A2!>)!!p! TG2 |!pp! (d4 _d4) | %54
 (_dc) c4 (^FG) | !arpeggio!=f2 _e2 d2 c2 | c6!<(! ^F=G!<)! | %57
!p! !arpeggio!!>![=F_e]2 (^FG) !arpeggio!!>![=Fd]2 (^FG) |!<(! (!>!dc) (c3!<)!!>(! =B_B=A)!>)! | %59
!p! ([FA]4 [^CE]4) |!p!!<(! (d4 cBA!<)!G) | !>!^F2 !>!D2 !>!^C2 !>!G2 | (=B4 AG!p!^FE) | %63
 [_B,D]4 [B,^CE]4 | (([DF]4!mp! [^CE]2)) [CE]2 | x6 z/!p! (b/d'/d/ | %66
 [dg]/G/) z z2 z2 z/!p! (d/g/G/ | [Bd]/E/) z z2 z2!<(! (^DE)!<)! | !>![G,=DEG]6!<(! (^DE)!<)! | %69
 !>![G,=DEG]6!<(! (^DE) | !arpeggio!!>![=DEB]2!<)! (^DE) !arpeggio!!>![=DEA]2 (^DE) | %71
!>(! (A!>)!G) G4 (^DE) |"^stetig steigernd"!f! (!>!d2 !>!^c2 !>!=c2 !>!=B2) | %73
!fff! (!>!=c2 !>!=B2 !>!_B2 !>!A2) | (_e2 d2 ^c2 =c2) | (^c2 =c2 =B2 _B2) |!f!!8va(! [a'a'']8- | %77
 [a'a'']8!8va)! |!f!!8va(! [a'a'']8!8va)! |!f! G4- G(!>!B!>!A!>!_A) | =G4 z4 | G4- G!>!B!>!A!>!_A | %82
 G6 A_B |!ff! !>![G-_e]4 !>!d3 ^c | !arpeggio!=f4 e3 ^d |!ff! !arpeggio![=G=g]2 (A_B) [G^f]2 (AB) | %86
 (!>!^fe) (e4 f2) | (!>!^fe) e4 z2 |!ff! (g^fg_e gdg^c | !>!g_B) B4 z2 | (GB,) B,4 z2 | z8 | %92
!p! !>!a'2 !>!a'2 z4 |!ff! (=f!>(!ef^c f=cf=B)!>)! |!p! !>!a'2 !>!a'2 z4 | %95
!mf! (^f!>(!=f^f=c f=Bf!>)!_B) |!p! !>!a'2 !>!a'2 z4 |!pp! a'2 a'2"^ritard." z4 || %98
[K:D] a'2 a'2 z4 | a8- |!pp! (a3 _b a2 d'2) | (a3 f a2) (gf) | (!arpeggio!ag)(gf) (g2 _b2) | %103
 (a4 f2) (ad') | (!arpeggio!ag f2) (fe d2) | a6 (c'b) | (a3 f a2) (bc') | %107
!8va(! (e'a')e'd' (c'2 f'2) | c'6 (d'f') | (f'e')!tenuto!d'!tenuto!c' (d'3 f') | %110
 (f'e')!tenuto!d'!tenuto!c' (bd') (a^g)!8va)! | (aeP^fe aec'e | bed'c' bef'e' | c'ePfe aec'e | %114
 befe e'ec'e | f'ee'e d'ec'e |"_morendo" befe ^gefe) | (e4 d2 cB) |!pp! ([FA]3 [^EB] [FA]2) d2 | %119
 (A3 F A2) (GF) | (AG)(GF) (G2 _B2) | (A4 F2) (Ad) | (AG F2) (FE D2) | %123
 (Dxxx x2[I:staff +1] (!>!A,2) | %124
"^sehr getragen, zart""^molto sostenuto, tenere"[I:staff -1] C4 (D2 CD)) | ([CF]4 E2) D2 | %126
 [B,E]4 (F2 EF) | (A4 G2) (FE) | (D4 ^D4) | (E4 B,4) | z8 | z8 | (DA,B,A, DA,FA,) | %133
 z2 z (A, EA,AA, | FA,ED) z2 (B,D | A,D) z2[I:staff +1] (F,A,E,A,) | %136
[I:staff -1] z4[K:bass]!ppp! (E,2 A,2) |!ppp! (D,2 A,2)!ppp! z4 | !fermata!z8 |] %139
V:4
!f!!>(! T[D,F,]2 T[C,E,]/[I:staff -1](A/d/D/!>)!!p! A/[I:staff +1]A,/) z z/[I:staff -1] D/A/!f![I:staff +1]A,/ | %1
!>(! T[D,,F,,]2 [C,,E,,]2!>)!!p! T[B,,D,]2 T[A,,^C,]2 |!p! T[D,F,]2 T[C,E,]2 T[B,,D,]2 T[A,,^C,]2 | %3
 T[B,,D,]2 T[_A,,=C,]2 T[G,,=B,,]2 T[_G,,_B,,]2 | %4
!<(! ([F,,,F,,]2 [G,,,G,,]2 [^G,,,^G,,]2 [A,,,A,,]2)!<)! | %5
!>(! ([D,,D,]2 [^C,,^C,]2 [=C,,=C,]2 [=B,,,=B,,]2)!>)! | ([_B,,,_B,,]4 [A,,,A,,]4) | %7
 ([_A,,,_A,,]4 [G,,,G,,]2 [=F,,,=F,,]2) | !arpeggio![C,G,]8 | %9
 ([C,,C,]2 [=B,,,=B,,]2 [_B,,,_B,,]2 [=A,,,=A,,]2) | ([_A,,,_A,,]4 [G,,,G,,]4) | %11
!<(! _A,4 =A,2!mf! _A,2!<)! |!<(! (_C2 =C2 _D2[I:staff -1] =E2)!<)! | %13
!mp!!<(![I:staff +1] =A,4 !arpeggio!F,4!<)! |!f!!>(!{/=D,,} T=D,2 T^C,2!>)!!p! T=C,2 T=B,,2 | %15
!f!!>(! T[_B,,D,F,]2 T[A,,C,E,]2!>)!!p! T[^G,,B,,D,]2 T[=G,,A,,^C,]2 | %16
!f!!>(! T[^C,F,A,]2 T[=C,E,^G,]2!>)!!p! T[_B,,D,=G,]2 T[A,,^C,^F,]2 | %17
!pp!!p!!>(! !>!T[D,=F,]2 !>!T[=C,E,]2 !>!T[B,,D,]2!>)!!pp! !>!T[A,,^C,]2 | %18
!>(! !>!T[B,,D,]2 !>!T[=A,,^C,]2 !>!T[_A,,=C,]2!>)! !>!T[G,,=B,,]2 | %19
!<(! ([G,,,G,,]4 [A,,,A,,]4)!<)! | (!>![D,,D,]4 ([G,,,G,,-]4) |!<(! ([G,,,G,,]4) [A,,,A,,]4)!<)! | %22
 ([D,,D,]4 [^G,,,^G,,]4-) | z!>(! D,/4D/4D,/4D/4 !//-!D,/D/!pp! x!>)! !//-!D,/D/ x x2 | %24
!<(! (!>!A,2 !>!^G,2!<)! =G,4) | (F,4 E,2 _E,2) |!f!!>(! !arpeggio![^G,=B,]8!>)! | %27
!f!!>(! !arpeggio![^G,=B,]8!>)! |!p!"^cresc." (F,4 !arpeggio!_A,4) | [E,,^G,=B,]8 | D,6 E,F, | %31
 D,6!f! E,!pp!F, |!p! G,6 G,2 | !>![D,,,D,,]4 !>![F,,,F,,]4 |!p! (([G,,,G,,]4 [A,,,A,,]4)) | %35
 (([D,,D,]4 [_A,,,_A,,]4-)) | (([A,,,A,,]4 [G,,,G,,]4)) | (([_G,,,_G,,]4 [F,,,F,,]4)) | (_C4 B,4) | %39
 (_A,,4 =A,,4) | F,4 x4 | F,,8 | ((B,4 =B,4)) |!<(! G,8!<)! |!p! A,6 (!>!B,!>!C) | %45
 A,6 (!>!B,!>!C) | T[^C,,^C,]2 T[=C,,=C,]2 T[=B,,,=B,,]2 T[_B,,,_B,,]2 | %47
 ([A,,,A,,]2 [^G,,,^G,,]2 [=G,,,=G,,]2 [^F,,,^F,,]2) | !arpeggio![=F,,A,]4 !arpeggio![E,,^G,]4 | %49
!f! (A,,2 ^G,,2 =G,,2 F,,2) |!f! (G,,2 ^G,,2 A,,2 _B,,2) |!f! [D,=G,]8 |!f! D,8 | (F,,4 _G,,4 | %54
 =G,,8) | (_A,,4 G,,2 A,,2) | (=A,,6 B,,2) | (=A,,2 B,,2 A,,2 B,,2) | (=B,,2 C,4 ^C,2) | A,4 B,4 | %60
 (B,2 F,2 D,2 B,2) | (=B,4 [G,^A,]4) | (D,2 =B,,2 D,,2 D,2) | =F,4 x4 | %64
 !>!D,4 !>!=C,!>!B,,!>!A,,!>!G,, | B,8 |!f! TB,,2 TA,,2 TG,,2 TF,,2 | %67
!>(! TG,,2 TF,,2 TE,,2 TD,,2!>)! |!f! TC,2 TB,,2 TA,,2 TG,,2 |!>(! TA,,2 TG,,2 TF,,2 TE,,2!>)! | %70
!f!!>(! TE,2 TD,2 TC,2!>)!!mp! TB,,2 | TC,2 TB,,2 TA,,2 TG,,2 | !arpeggio![D,,B,,B,]8 | %73
!8vb(! !>![D,,,D,,]8!8vb)! |!ff! !arpeggio![D,,B,,B,]8 |!8vb(! !>![D,,,D,,]8!8vb)! | %76
!ff! !>!A,2 !>!G,2 !>!F,2 !>!E,2 | !>!F,2 !>!E,2 !>!D,2 !>!^C,2 |!f! !>!A,2 !>!G,2 !>!F,2 !>!E,2 | %79
 =F,2 E,2 D,2 ^C,2 | (G,4 E,4) | (A,4 G,4) | (G,4 =E,4) | (A,4 =G,4) |!ff! [D,,A,,]8 | %85
 (^C2 D2 C2 D2) | (^C2 D2 C2 D2) | (^C2 D2 C2 D2) | ^C =C2 =B,2 _B,2 A,- | A, G,3- G, ^F,2 =F, | %90
 (_B,A,B,G, B,_G,B,=F,) | (=G,^F,G,E, G,_E,G,D,) | z8 | (!///-!!arpeggio!A,4 G4) | z8 | %95
 (!///-!A,4 G4) | z8 |[K:treble] (^e!>(!^c^f^B ecf!>)!!pp!B) ||[K:D] (^ecf^A ecfA) | %99
"^mit Pedal""_col Pedale"!ped! (^e=df^G edf=A)!ped-up! |!ped! (^edfA edfA)!ped-up! | %101
 (^edfA cA=cA) | (BA_BA =BA^cA | dA_BA =BA=cA | BA^GA =GAFA | eAdA eAfA | eAdA eAfA | ^gAfA eABA | %108
 eAfA eABA | cAfA BA^gA | cAfA dAdA | cABA cAfA | dAfA dABA | eAdA cAEA | E8 | F4 ^G2 A2) | %116
 [DF]4 [E^G]4 | [^A,=G]4 [B,F]2 [C^E]2 |[K:bass] !arpeggio![D,,A,,]8- | !arpeggio![D,,A,,]8- | %120
 [D,,A,,]8- | [D,,A,,]8- |[I:staff -1] (B,A,^G,A,[I:staff +1] =G,A,G,A,) | %123
 F,A,[E,B,]A, [F,D]A, F,D, | (E,A,B,A, F,A,-[E,A,]F,) | (A,A,B,A, G,A,F,A,) | %126
 (G,A,B,A, CA,[G,C]A,) | (_E,4 =E,2) !>!F,2 | !>!B,6 !>!=A,2 | !>!^G,2 !>!B,2 !>!E2 !>!=D2 | %130
 [A,,A,=D]8 | (C4 B,2 C2) |!pp!!ped! !arpeggio![D,,A,,F,A,]8!ped-up! | %133
!ped! !arpeggio![D,,A,,F,A,]8!ped-up! |!ped! !arpeggio![D,,A,,F,]8!ped-up! | %135
!ped! !arpeggio![D,,A,,F,]8!ped-up! |!ped! !arpeggio![D,,A,,F,]8-!ped-up! | %137
 [D,,A,,F,]4!ped! !tenuto![D,,A,,F,]4- | !fermata![D,,A,,F,]8!ped-up! |] %139
V:5
 [D,,F,,]2 [C,,E,,]2 T[B,,D,]2 T[A,,^C,]2 | x8 | D,6 x2 | D,6 x2 | x8 | x8 | x8 | x8 | %8
 (_E,,4 D,,2 _D,,2) | x8 | x8 | (_D,2 C,2 =B,,2 _B,,2) | _A,6 _B,2 | z =E,2 _E,2 =D,2 _D, | x8 | %15
 x8 | F,,4 E,,2 _E,,2 | !>![D,,,D,,]4 !>![F,,,F,,]4 | [D,,,D,,]4 [F,,,F,,]4 | x8 | x8 | x8 | x8 | %23
 [G,,,G,,]4 [A,,,A,,]4- | [A,,,A,,]4 !>![D,,D,]4- | [D,,D,]8 | %26
 ([D,,D,]2 [^C,,^C,]2 [=C,,=C,]2 [=B,,,=B,,]2) | ([D,,D,]2 [^C,,^C,]2 [=C,,=C,]2 [=B,,,=B,,]2) | %28
 (_B,,4 ^F,,4) | x8 | ([A,,,A,,]4 [^G,,,^G,,]4) | ([^F,,,^F,,]4 [E,,,E,,]4) | %32
 (!>![D,,,D,,]4 !>![=F,,,=F,,]4) | x8 | x8 | x8 | x8 | x8 | _G,8 | x8 | B,,8 | x8 | %42
 (B,,2 _A,,2 G,,4) | (C,2 =B,,2 _B,,2 E,,2) | TA,,2 T^G,,2 T=G,,2 T^F,,2 | %45
 T=F,,2 TE,,2 T^D,,2 T=D,,2 | x8 | x8 | x8 | x8 | x8 | T=G,,2 T^F,,2 T=F,,2 TE,,2 | %52
 T_B,,2 TA,,2 T_A,,2 TG,,2 | x8 | x8 | x8 | x8 | x8 | x8 | D,8 | D,8 | D,8 | D,,8 | %63
 !>![D,,_B,,]4 !>!A,,!>!G,,!>!F,,!>!E,, | D,,8 | !>!B,,4 A,,G,,F,,E,, | D,,8 | D,,8 | D,,8 | D,,8 | %70
 D,,8 | D,,8 | x8 |!8vb(! x8!8vb)! | x8 |!8vb(! x8!8vb)! | !arpeggio![D,,A,,]8- | [D,,A,,]8 | %78
 !arpeggio![D,,A,,]8 | !arpeggio![D,,A,,]8 | !arpeggio![D,,A,,]8 | !arpeggio![D,,A,,]8 | %82
 !arpeggio![D,,A,,]8 | !arpeggio![D,,A,,]8 | x8 | A,8 | !arpeggio!A,8 | A,8 | A,8 | A,,8- | %90
 (!>!E,4 !>!_E,2 !>!D,2) | (!>!=C,4 =B,,2 _B,,2) | x8 | x8 | x8 | x8 | x8 |[K:treble] !>!A8 || %98
[K:D] x8 | x8 | x8 | x8 | x8 | x8 | x8 | x8 | x8 | x8 | x8 | x8 | x8 | x8 | x8 | x8 | %114
 DA,B,A, CA,EA, | DA,DA, EA,EA, | A,8 | x8 |[K:bass] x8 | x8 | x8 | x8 | [D,,A,,]8 | [D,,A,,]8 | %124
 [D,,A,,]8- | [D,,A,,]8 | D,,8 | D,,4 x4 | (([G,,G,]4 [B,,F,]4)) | B,,4 E,4 | (E,4 F,4) | %131
 !arpeggio![A,,G,A,]8 | x8 | x8 | x8 | x8 | x8 | x8 | x8 |] %139
V:6
 x8 | x8 | x8 | x8 | (!///-!D4 F4) | (!///-!D3 F3) x2 | !arpeggio![DF]4 (!///-!D2 F2) | %7
 !>!F2 !>!E2 _E2 D2 | x8 | !arpeggio![_EG]8 | [_E^F]4 [CE]4 | x4 _E2 =D2 | x8 | x8 | x8 | x8 | x8 | %17
 x8 | x8 | x8 | !arpeggio![DE]6 x2 | x8 | x8 | x8 | x8 | x8 | x8 | x8 | x8 | x8 | %30
 (D2 ^C2 =C2 =B,2) | ([_B,D]2 ^C2 =C2 =B,2) | x8 | x8 | (!///-!D4 F4) | (!///-!D4 F4) | =B6 c2 | %37
 (_B2 =A2 _A4) | x8 | [_E_G]8 | x4 !//-!D!<(![I:staff +1]F,[I:staff -1] !//-!_D[I:staff +1]F,!<)! | %41
[I:staff -1] (C6[I:staff +1] A,2) | x8 | x8 | x8 | x8 |{A,[I:staff -1]E} E8 | D2 ^C2 =C2 =B,_B, | %48
 x8 | [DF]6 D2 | !arpeggio![DF]4 D2[I:staff +1] ^G,2 |[I:staff -1] [B,D]8 | [B,D]8 | %53
 !///-!D2 F2 !///-!_D2 B2 | [=EB]6 x2 | c4 =B2 x2 | !>!_G2 !>!F2 !>!=E2 _E2 | _E4 E4 | %58
 (G2 !>!_A4) G2 | x8 | [DF]8 | x8 | !arpeggio![=B,D]8 | x8 | B,4 x4 | (([DF]4!mp! [^CE]2)) [=CE]2 | %66
 x8 | x8 | x8 | x8 | x8 | !arpeggio![=DE]6 x2 | !>!G"_cresc."!>!^F !>!G!>!E !>!G!>!_E !>!G!>!D | %73
 G!>(!=EG_E GDG^C!>)! | G^FG=E G_EGD | G!>(!=EG_E GDG!>)!!mf!^C | %76
!8va(! z2!p! z/ (a'/e''/e'/ a'/a/) z z2 | z2!8va)!!p! z/ (a/e'/e/ a/A/) z z/ (e/a/A/) | %78
!8va(! z2!p! z/!8va)! (a/e'/e/ a/A/) z z2 | x8 | D2 ^C2 =B,2 _B,2 | (G2 F2 E2 _E2) | %82
 =E2 _E2 D2 ^C2 | G2[I:staff +1] ^F2[I:staff -1] GBA^G | !arpeggio!=G4 x2 !>!A!>!_B | x8 | %86
 G4- G!>!B!>!A!>!^G | =G4- GBA^G | =G8 | (GEG_E GDG^C) | x8 | x8 | !arpeggio![Aa]8 | %93
[I:staff +1] G2 x6 |[I:staff -1] !arpeggio![Aa]8 |[I:staff +1] G2 x6 | %96
[I:staff -1] !arpeggio![Aa]8 | a8 ||[K:D] a8 | x8 | x8 | x8 | A8- | A8 | A8- | A8 | x8 |!8va(! x8 | %108
 x8 | x8 | x8!8va)! | x8 | x8 | x8 | x8 | x8 | x8 | c4 B2 A2 | (DA,CA, DA,DA,) | (FA,DA, CA,=CA,) | %120
 (B,A,_B,A, =B,A,^CA,) | DA,_B,A, =B,A, =C2 | x8 | x8 | x8 | x8 | x8 | (!arpeggio!=C4 B,2) ^A,2 | %128
 x8 | x8 | x8 | x8 | x8 | x8 | x8 | x8 | x4[K:bass] x4 | x8 | x8 |] %139
V:7
 x8 | x8 | x8 | x8 | x8 | x8 | x8 | (D4 C4) | x8 | x8 | x8 | x8 | x8 | x8 | x8 | x8 | x8 | x8 | %18
 x8 | x8 | x8 | x8 | x8 | x8 | x8 | x8 | x8 | x8 | x8 | x8 | x8 | x8 | x8 | x8 | x8 | x8 | _E8 | %37
 _E6!<(! (D_E)!<)! | x8 | x8 | x8 | x8 | x8 | x8 | x8 | x8 | x8 | x8 | x8 | x8 | x8 | x8 | x8 | %53
 x8 | x8 | _E8 | _E6 x2 | x8 | !arpeggio!_E6 =E2 | x8 | x8 | x8 | x8 | x8 | x8 | x8 | x8 | x8 | %68
 x8 | x8 | x8 | x8 | x8 | x8 | x8 | x8 |!8va(! x8 | x2!8va)! x6 |!8va(! x5/2!8va)! x11/2 | x8 | %80
 x8 | x8 | x8 | x8 | A2 ^G2 =G2 ^F2 | x8 | x8 | x8 | x8 | x8 | x8 | x8 | x8 | x8 | x8 | x8 | x8 | %97
 x8 ||[K:D] x8 | x8 | x8 | x8 | x8 | x8 | x8 | x8 | x8 |!8va(! x8 | x8 | x8 | x8!8va)! | x8 | x8 | %113
 x8 | x8 | x8 | x8 | x8 | x8 | x8 | x8 | x8 | x8 | x8 | x8 | x8 | x8 | x8 | x8 | x8 | x8 | x8 | %132
 x8 | x8 | x8 | x8 | x4[K:bass] x4 | x8 | x8 |] %139
V:8
 x8 | x8 | x8 | x8 | x8 | x8 | x8 | x8 | x8 | x8 | x8 | x8 | (_D,2 C,2 =B,,2 C,2) | %13
 !arpeggio!F,,4 B,,,2 _D,,2 | x8 | x8 | x8 | x8 | x8 | x8 | x8 | x8 | x8 | x8 | x8 | x8 | x8 | x8 | %28
 x8 | x8 | x8 | x2 A,2 _A,4 | x8 | x8 | x8 | x8 | x8 | x8 | x8 | x8 | x8 | x8 | x8 | x8 | x8 | x8 | %46
 x8 | x8 | x8 | x8 | x8 | x8 | x8 | x8 | x8 | x8 | x8 | x8 | x8 | x8 | x8 | x8 | x8 | x8 | x8 | %65
 D,,4 x4 | x8 | x8 | x8 | x8 | x8 | x8 | x8 |!8vb(! x8!8vb)! | x8 |!8vb(! x8!8vb)! | x8 | x8 | x8 | %79
 x8 | x8 | x8 | x8 | x4 =F2 E2 | x8 | x8 | x8 | x8 | x8 | x8 | A,,8 | (!///-!A,,,4 A,,4) | x8 | %93
 x8 | x8 | x8 | x8 |[K:treble] x8 ||[K:D] x8 | x8 | x8 | x8 | x8 | x8 | x8 | x8 | x8 | x8 | x8 | %109
 x8 | x8 | x8 | x8 | x8 | x8 | x8 | x8 | x8 |[K:bass] x8 | x8 | x8 | x8 | x8 | x8 | x8 | x8 | x8 | %127
 x8 | x8 | (E,,4 F,,2 ^G,,2) | x8 | x8 | x8 | x8 | x8 | x8 | x8 | x8 | x8 |] %139

